X: 4
T: Lizzy In The Lowground
R: reel
M: 4/4
L: 1/8
K: Gdor
K:Edor
G2EG DEGA|BdeB dBAG|B3e efed|eBdA BGAB|
G3E DEGA|BdeB dBAB|eBdA BGAB|1 GEDG EGGF:|2 GEDG EGG2||
|:G,3A, G,A,B,D|E2BE AGED|E2BE AGED|E2GE DB,A,B,|
G,3A, G,A,B,D|E2BE AGED|E2BE AGEA|GEDG EGG2:|


Tune 4782	Setting 4782

